X:125
T:AIR XII. My Mother's ay glowrin o'er me.
O:england
B:Joseph Mitchell: "The Highland Fair" (1731)
M:6/8
L:1/8
K:DMin
D|D>ED     CB,A,| F3   E2G|A>BA GFE  |c3 A2
z|F>GA/B/ (cBA) | GEc  C2C|D>ED CB,A,|F3 E2||
d|ded      c2A  |(de)f e2d|cdc  AGF  |c3 d2
d|cAF      cAF  | GEC  GEC|DED  CB,A,|F3 E2|]
